public/images/citation-quotes.svg

<svg width="27" height="20" viewBox="0 0 27 20" fill="none" xmlns="http://www.w3.org/2000/svg">
<path d="M5.07272 4.87563C4.96513 3.8747 1.60975 3.05826 3.5 2.5C4.98986 2.05999 9.43598 3.08696 6.66736 4.87563C1.15955 8.43397 0.150494 1.70533 5.67371 2.02251C11.4693 2.35533 9.83243 8.86829 9.64833 12.2938C9.52371 14.6125 9.24912 16.0491 8.70988 18" stroke="#EF009A" stroke-width="3" stroke-linecap="round"/>
<path d="M18.2448 4.87563C20.5 4 16.8163 2.82354 18.7066 2.26528C20.1964 1.82527 24.436 3.08696 21.6674 4.87563C16.1595 8.43397 15.1505 1.70533 20.6737 2.02251C26.4693 2.35533 24.8324 8.86829 24.6483 12.2938C24.5237 14.6125 24.2491 16.0491 23.7099 18" stroke="#EF009A" stroke-width="3" stroke-linecap="round"/>
</svg>

<svg xmlns="http://www.w3.org/2000/svg" width="27" height="20" fill="none"><path stroke="#EF009A" stroke-linecap="round" stroke-width="3" d="M5 4.9c0-1-3.4-1.8-1.5-2.4 1.5-.4 6 .6 3.2 2.4C1.2 8.4.2 1.7 5.7 2c5.8.4 4.1 6.9 4 10.3-.2 2.3-.5 3.7-1 5.7M18.2 4.9c2.3-.9-1.4-2 .5-2.6 1.5-.5 5.7.8 3 2.6-5.5 3.5-6.5-3.2-1-2.9 5.8.4 4.1 6.9 4 10.3-.2 2.3-.5 3.7-1 5.7"/></svg>
